;FLAVOR:Marlin
;TIME:12266
;Filament used: 19.7107m
;Layer height: 0.2
;MINX:15.19
;MINY:28.575
;MINZ:0.2
;MAXX:109.29
;MAXY:191.425
;MAXZ:22
;TARGET_MACHINE.NAME:Creality Ender-3 V3 SE
;Generated with Cura_SteamEngine 5.8.1
M82 ;absolute extrusion mode
M220 S100 ;Reset Feedrate
M221 S100 ;Reset Flowrate

G28 ;Home

M420 S1; Use saved mesh leveling data

G92 E0 ;Reset Extruder
G1 Z2.0 F3000 ;Move Z Axis up
G1 X-3 Y20 Z0.28 F5000.0 ;Move to start position
M190 S60 ; Set bed temperature and wait
M109 S200.0 ; Set hotend temperature and wait
G1 X-3 Y100.0 Z0.28 F1500.0 E15 ;Draw the first line
G1 X-2 Y100.0 Z0.28 F5000.0 ;Move to side a little
G1 X-2 Y20 Z0.28 F1500.0 E30 ;Draw the second line
G92 E0 ;Reset Extruder
G1 E-1.0000 F1800 ;Retract a bit
G1 Z2.0 F3000 ;Move Z Axis up
G1 E0.0000 F1800 

G92 E0
G92 E0
G1 F2400 E-0.8
;LAYER_COUNT:109
;LAYER:0
M107
G1 F300 Z0.4
G0 F9000 X18.3 Y30.113 Z0.4
;TYPE:SKIRT
G1 F300 Z0.2
G1 F2400 E0
G1 F1800 X20.281 Y28.932 E0.07671
G1 X22.013 Y28.65 E0.13507
G1 X102.343 Y28.575 E2.80686
G1 X104.239 Y29.041 E2.8718
G1 X106.267 Y30.094 E2.9478
G1 X107.726 Y31.655 E3.01887
G1 X108.933 Y33.678 E3.09722
G1 X109.215 Y35.396 E3.15512
G1 X109.29 Y184.491 E8.11405
G1 X108.845 Y186.345 E8.17746
G1 X107.775 Y188.407 E8.25473
G1 X106.18 Y189.887 E8.3271
G1 X104.199 Y191.068 E8.40381
G1 X102.467 Y191.35 E8.46217
G1 X22.137 Y191.425 E11.13396
G1 X20.241 Y190.959 E11.1989
G1 X18.213 Y189.906 E11.2749
G1 X16.754 Y188.345 E11.34596
G1 X15.547 Y186.322 E11.42432
G1 X15.265 Y184.604 E11.48222
G1 X15.19 Y35.509 E16.44114
G1 X15.635 Y33.655 E16.50456
G1 X16.705 Y31.593 E16.58182
G1 X18.3 Y30.113 E16.65419
G0 F9000 X18.539 Y30.437
G1 F1800 X20.421 Y29.315 E16.72707
G1 X22.077 Y29.045 E16.78288
G1 X102.297 Y28.975 E19.451
G1 X104.096 Y29.417 E19.51262
G1 X106.022 Y30.417 E19.5848
G1 X107.402 Y31.894 E19.65203
G1 X108.55 Y33.818 E19.72655
G1 X108.82 Y35.461 E19.78193
G1 X108.89 Y184.444 E24.73712
G1 X108.467 Y186.205 E24.79736
G1 X107.452 Y188.161 E24.87065
G1 X105.941 Y189.563 E24.93921
G1 X104.059 Y190.685 E25.01209
G1 X102.403 Y190.955 E25.06789
G1 X22.183 Y191.025 E27.73602
G1 X20.384 Y190.583 E27.79764
G1 X18.458 Y189.583 E27.86981
G1 X17.078 Y188.106 E27.93705
G1 X15.93 Y186.182 E28.01156
G1 X15.66 Y184.539 E28.06694
G1 X15.59 Y35.556 E33.02214
G1 X16.013 Y33.795 E33.08238
G1 X17.028 Y31.839 E33.15567
G1 X18.539 Y30.437 E33.22423
G0 F9000 X18.778 Y30.761
G1 F1800 X20.561 Y29.698 E33.29327
G1 X22.141 Y29.44 E33.34652
G1 X102.25 Y29.375 E36.01095
G1 X103.954 Y29.794 E36.06932
G1 X105.777 Y30.74 E36.13763
G1 X107.081 Y32.136 E36.20116
G1 X108.167 Y33.956 E36.27166
G1 X108.425 Y35.526 E36.32457
G1 X108.49 Y184.397 E41.27604
G1 X108.089 Y186.065 E41.3331
G1 X107.129 Y187.915 E41.40243
G1 X105.702 Y189.239 E41.46717
G1 X103.919 Y190.302 E41.53621
G1 X102.339 Y190.56 E41.58946
G1 X22.23 Y190.625 E44.2539
G1 X20.526 Y190.206 E44.31226
G1 X18.703 Y189.26 E44.38057
G1 X17.399 Y187.864 E44.44411
G1 X16.313 Y186.044 E44.5146
G1 X16.055 Y184.474 E44.56752
G1 X15.99 Y35.603 E49.51899
G1 X16.391 Y33.935 E49.57605
G1 X17.351 Y32.085 E49.64537
G1 X18.778 Y30.761 E49.71011
G0 F9000 X19.017 Y31.085
G1 F1800 X20.701 Y30.081 E49.77532
G1 X22.206 Y29.835 E49.82604
G1 X102.204 Y29.775 E52.48679
G1 X103.811 Y30.17 E52.54183
G1 X105.532 Y31.063 E52.60632
G1 X106.76 Y32.378 E52.66616
G1 X107.784 Y34.094 E52.73262
G1 X108.03 Y35.591 E52.78308
G1 X108.09 Y184.349 E57.73079
G1 X107.711 Y185.925 E57.7847
G1 X106.806 Y187.669 E57.85005
G1 X105.463 Y188.915 E57.91099
G1 X103.779 Y189.919 E57.9762
G1 X102.274 Y190.165 E58.02692
G1 X22.276 Y190.225 E60.68766
G1 X20.669 Y189.83 E60.7427
G1 X18.948 Y188.937 E60.80719
G1 X17.72 Y187.622 E60.86703
G1 X16.696 Y185.906 E60.9335
G1 X16.45 Y184.409 E60.98395
G1 X16.39 Y35.651 E65.93167
G1 X16.769 Y34.075 E65.98558
G1 X17.674 Y32.331 E66.05093
G1 X19.017 Y31.085 E66.11186
G0 F9000 X19.256 Y31.409
G1 F1800 X20.841 Y30.464 E66.17324
G1 X22.271 Y30.23 E66.22143
G1 X102.158 Y30.175 E68.87848
G1 X103.668 Y30.546 E68.9302
G1 X105.287 Y31.386 E68.99086
G1 X106.439 Y32.62 E69.04701
G1 X107.401 Y34.232 E69.10945
G1 X107.635 Y35.656 E69.15745
G1 X107.69 Y184.301 E74.1014
G1 X107.333 Y185.785 E74.15217
G1 X106.483 Y187.423 E74.21355
G1 X105.224 Y188.591 E74.27067
G1 X103.639 Y189.536 E74.33204
G1 X102.209 Y189.77 E74.38024
G1 X22.322 Y189.825 E77.03729
G1 X20.812 Y189.454 E77.08901
G1 X19.193 Y188.614 E77.14967
G1 X18.041 Y187.38 E77.20582
G1 X17.079 Y185.768 E77.26825
G1 X16.845 Y184.344 E77.31625
G1 X16.79 Y35.699 E82.26021
G1 X17.147 Y34.215 E82.31097
G1 X17.997 Y32.577 E82.37235
G1 X19.256 Y31.409 E82.42947
G0 F9000 X19.495 Y31.733
G1 F1800 X20.981 Y30.847 E82.48701
G1 X22.336 Y30.625 E82.53268
G1 X102.111 Y30.575 E85.18601
G1 X103.526 Y30.923 E85.23447
G1 X105.042 Y31.709 E85.29127
G1 X106.118 Y32.862 E85.34372
G1 X107.018 Y34.37 E85.40213
G1 X107.24 Y35.721 E85.44767
G1 X107.29 Y184.253 E90.38787
G1 X106.955 Y185.645 E90.43549
G1 X106.16 Y187.177 E90.49289
G1 X104.985 Y188.267 E90.5462
G1 X103.499 Y189.153 E90.60374
G1 X102.144 Y189.375 E90.64941
G1 X22.369 Y189.425 E93.30274
G1 X20.954 Y189.077 E93.3512
G1 X19.438 Y188.291 E93.408
G1 X18.362 Y187.138 E93.46045
G1 X17.462 Y185.63 E93.51886
G1 X17.24 Y184.279 E93.5644
G1 X17.19 Y35.747 E98.5046
G1 X17.525 Y34.355 E98.55222
G1 X18.32 Y32.823 E98.60962
G1 X19.495 Y31.733 E98.66293
G0 F9000 X19.734 Y32.057
G1 F1800 X21.121 Y31.23 E98.71664
G1 X22.401 Y31.02 E98.75978
G1 X102.065 Y30.975 E101.40942
G1 X103.383 Y31.299 E101.45456
G1 X104.797 Y32.032 E101.50753
G1 X105.797 Y33.104 E101.55629
G1 X106.635 Y34.508 E101.61067
G1 X106.845 Y35.786 E101.65375
G1 X106.89 Y184.205 E106.59019
G1 X106.577 Y185.505 E106.63466
G1 X105.837 Y186.931 E106.6881
G1 X104.746 Y187.943 E106.73759
G1 X103.359 Y188.77 E106.7913
G1 X102.079 Y188.98 E106.83444
G1 X22.415 Y189.025 E109.48408
G1 X21.097 Y188.701 E109.52922
G1 X19.683 Y187.968 E109.58219
G1 X18.683 Y186.896 E109.63095
G1 X17.845 Y185.492 E109.68534
G1 X17.635 Y184.214 E109.72841
G1 X17.59 Y35.795 E114.66485
G1 X17.903 Y34.495 E114.70932
G1 X18.643 Y33.069 E114.76276
G1 X19.734 Y32.057 E114.81225
G0 F9000 X19.973 Y32.381
G1 F1800 X21.261 Y31.613 E114.86213
G1 X22.466 Y31.415 E114.90274
G1 X102.019 Y31.375 E117.54869
G1 X103.24 Y31.675 E117.59051
G1 X104.55 Y32.354 E117.63958
G1 X105.478 Y33.349 E117.68484
G1 X106.252 Y34.646 E117.73507
G1 X106.45 Y35.851 E117.77569
G1 X106.49 Y184.157 E122.70836
G1 X106.199 Y185.365 E122.74969
G1 X105.514 Y186.685 E122.79916
G1 X104.507 Y187.619 E122.84484
G1 X103.219 Y188.387 E122.89471
G1 X102.014 Y188.585 E122.93533
G1 X22.461 Y188.625 E125.58127
G1 X21.24 Y188.325 E125.62309
G1 X19.93 Y187.646 E125.67217
G1 X19.002 Y186.651 E125.71742
G1 X18.228 Y185.354 E125.76766
G1 X18.03 Y184.149 E125.80827
G1 X17.99 Y35.843 E130.74095
G1 X18.281 Y34.635 E130.78228
G1 X18.966 Y33.315 E130.83174
G1 X19.973 Y32.381 E130.87742
G0 F9000 X20.212 Y32.705
G1 F1800 X21.401 Y31.996 E130.92347
G1 X22.531 Y31.81 E130.96156
G1 X101.973 Y31.775 E133.60381
G1 X103.097 Y32.051 E133.6423
G1 X104.303 Y32.676 E133.68748
G1 X105.156 Y33.591 E133.72909
G1 X105.869 Y34.786 E133.77537
G1 X106.055 Y35.916 E133.81346
G1 X106.09 Y184.109 E138.74238
G1 X105.821 Y185.225 E138.78056
G1 X105.191 Y186.439 E138.82605
G1 X104.268 Y187.295 E138.86792
G1 X103.079 Y188.004 E138.91396
G1 X101.949 Y188.19 E138.95205
G1 X22.507 Y188.225 E141.59431
G1 X21.383 Y187.949 E141.6328
G1 X20.177 Y187.324 E141.67798
G1 X19.324 Y186.409 E141.71958
G1 X18.611 Y185.214 E141.76587
G1 X18.425 Y184.084 E141.80396
G1 X18.39 Y35.891 E146.73288
G1 X18.659 Y34.775 E146.77106
G1 X19.289 Y33.561 E146.81655
G1 X20.212 Y32.705 E146.85842
G0 F9000 X20.451 Y33.029
G1 F1800 X21.541 Y32.379 E146.90063
G1 X22.596 Y32.205 E146.93619
G1 X101.926 Y32.175 E149.57472
G1 X102.955 Y32.428 E149.60996
G1 X104.056 Y32.998 E149.6512
G1 X104.834 Y33.833 E149.68916
G1 X105.486 Y34.926 E149.73149
G1 X105.66 Y35.981 E149.76705
G1 X105.69 Y184.061 E154.69221
G1 X105.443 Y185.085 E154.72725
G1 X104.868 Y186.193 E154.76877
G1 X104.029 Y186.971 E154.80682
G1 X102.939 Y187.621 E154.84903
G1 X101.884 Y187.795 E154.8846
G1 X22.554 Y187.825 E157.52312
G1 X21.525 Y187.572 E157.55837
G1 X20.424 Y187.002 E157.5996
G1 X19.646 Y186.167 E157.63756
G1 X18.994 Y185.074 E157.67989
G1 X18.82 Y184.019 E157.71546
G1 X18.79 Y35.939 E162.64062
G1 X19.037 Y34.915 E162.67565
G1 X19.612 Y33.807 E162.71717
G1 X20.451 Y33.029 E162.75523
G0 F9000 X20.69 Y33.353
G1 F1800 X21.681 Y32.762 E162.7936
G1 X22.661 Y32.6 E162.82664
G1 X101.88 Y32.575 E165.46148
G1 X102.812 Y32.804 E165.4934
G1 X103.809 Y33.32 E165.53073
G1 X104.512 Y34.075 E165.56505
G1 X105.103 Y35.066 E165.60342
G1 X105.265 Y36.046 E165.63646
G1 X105.29 Y184.013 E170.55786
G1 X105.065 Y184.945 E170.58975
G1 X104.545 Y185.947 E170.6273
G1 X103.79 Y186.647 E170.66154
G1 X102.799 Y187.238 E170.69992
G1 X101.819 Y187.4 E170.73296
G1 X22.6 Y187.425 E173.36779
G1 X21.668 Y187.196 E173.39971
G1 X20.671 Y186.68 E173.43705
G1 X19.968 Y185.925 E173.47136
G1 X19.377 Y184.934 E173.50974
G1 X19.215 Y183.954 E173.54278
G1 X19.19 Y35.987 E178.46418
G1 X19.415 Y35.055 E178.49607
G1 X19.935 Y34.053 E178.53362
G1 X20.69 Y33.353 E178.56786
G0 F9000 X20.929 Y33.677
G1 F1800 X21.821 Y33.145 E178.6024
G1 X22.726 Y32.995 E178.63291
G1 X101.834 Y32.975 E181.26406
G1 X102.669 Y33.18 E181.29265
G1 X103.564 Y33.643 E181.32617
G1 X104.188 Y34.314 E181.35665
G1 X104.72 Y35.206 E181.39119
G1 X104.87 Y36.111 E181.4217
G1 X104.89 Y183.965 E186.33935
G1 X104.687 Y184.805 E186.36809
G1 X104.222 Y185.701 E186.40166
G1 X103.551 Y186.323 E186.43209
G1 X102.659 Y186.855 E186.46664
G1 X101.754 Y187.005 E186.49715
G1 X22.646 Y187.025 E189.12829
G1 X21.811 Y186.82 E189.15689
G1 X20.916 Y186.357 E189.1904
G1 X20.292 Y185.686 E189.22088
G1 X19.76 Y184.794 E189.25543
G1 X19.61 Y183.889 E189.28594
G1 X19.59 Y36.035 E194.20358
G1 X19.793 Y35.195 E194.23232
G1 X20.258 Y34.299 E194.2659
G1 X20.929 Y33.677 E194.29633
G0 F9000 X21.168 Y34.001
G1 F1800 X21.961 Y33.528 E194.32704
G1 X22.792 Y33.39 E194.35506
G1 X101.788 Y33.375 E196.98248
G1 X102.526 Y33.556 E197.00775
G1 X103.319 Y33.966 E197.03744
G1 X103.864 Y34.553 E197.06408
G1 X104.337 Y35.346 E197.09479
G1 X104.475 Y36.177 E197.12281
G1 X104.49 Y183.917 E202.03666
G1 X104.309 Y184.665 E202.06226
G1 X103.899 Y185.455 E202.09186
G1 X103.312 Y185.999 E202.11848
G1 X102.519 Y186.472 E202.14919
G1 X101.688 Y186.61 E202.17721
G1 X22.692 Y186.625 E204.80463
G1 X21.954 Y186.444 E204.8299
G1 X21.161 Y186.034 E204.85959
G1 X20.616 Y185.447 E204.88623
G1 X20.143 Y184.654 E204.91695
G1 X20.005 Y183.823 E204.94496
G1 X19.99 Y36.083 E209.85882
G1 X20.171 Y35.335 E209.88441
G1 X20.581 Y34.545 E209.91402
G1 X21.168 Y34.001 E209.94063
G0 F9000 X21.407 Y34.325
G1 F1800 X22.101 Y33.911 E209.96751
G1 X22.858 Y33.785 E209.99304
G1 X101.738 Y33.775 E212.6166
G1 X102.387 Y33.934 E212.63882
G1 X103.074 Y34.289 E212.66454
G1 X103.54 Y34.792 E212.68735
G1 X103.954 Y35.486 E212.71422
G1 X104.08 Y36.243 E212.73975
G1 X104.09 Y183.868 E217.64978
G1 X103.931 Y184.525 E217.67226
G1 X103.576 Y185.209 E217.69789
G1 X103.073 Y185.675 E217.7207
G1 X102.379 Y186.089 E217.74757
G1 X101.622 Y186.215 E217.7731
G1 X22.742 Y186.225 E220.39666
G1 X22.093 Y186.066 E220.41888
G1 X21.406 Y185.711 E220.4446
G1 X20.94 Y185.208 E220.46741
G1 X20.526 Y184.514 E220.49428
G1 X20.4 Y183.757 E220.51981
G1 X20.39 Y36.132 E225.42984
G1 X20.549 Y35.475 E225.45232
G1 X20.904 Y34.791 E225.47795
G1 X21.407 Y34.325 E225.50076
G0 F9000 X21.646 Y34.649
G1 F1800 X22.241 Y34.294 E225.5238
G1 X22.924 Y34.18 E225.54683
G1 X101.688 Y34.175 E228.16653
G1 X102.248 Y34.312 E228.18571
G1 X102.828 Y34.612 E228.20743
G1 X103.216 Y35.031 E228.22642
G1 X103.571 Y35.626 E228.24946
G1 X103.685 Y36.309 E228.2725
G1 X103.69 Y183.819 E233.1787
G1 X103.553 Y184.385 E233.19807
G1 X103.253 Y184.963 E233.21973
G1 X102.834 Y185.351 E233.23872
G1 X102.239 Y185.706 E233.26176
G1 X101.556 Y185.82 E233.2848
G1 X22.792 Y185.825 E235.9045
G1 X22.232 Y185.688 E235.92367
G1 X21.652 Y185.388 E235.94539
G1 X21.264 Y184.969 E235.96438
G1 X20.909 Y184.374 E235.98743
G1 X20.795 Y183.691 E236.01046
G1 X20.79 Y36.181 E240.91666
G1 X20.927 Y35.615 E240.93603
G1 X21.227 Y35.037 E240.95769
G1 X21.646 Y34.649 E240.97668
G0 F9000 X21.888 Y34.97
G1 F1800 X22.379 Y34.677 E240.9957
G1 X22.99 Y34.575 E241.0163
G1 X101.638 Y34.575 E243.63215
G1 X102.109 Y34.69 E243.64827
G1 X102.582 Y34.935 E243.66599
G1 X102.895 Y35.273 E243.68131
G1 X103.188 Y35.764 E243.70033
G1 X103.29 Y36.375 E243.72093
G1 X103.29 Y183.77 E248.62331
G1 X103.175 Y184.245 E248.63957
G1 X102.93 Y184.717 E248.65725
G1 X102.592 Y185.03 E248.67257
G1 X102.101 Y185.323 E248.69159
G1 X101.49 Y185.425 E248.7122
G1 X22.842 Y185.425 E251.32804
G1 X22.371 Y185.31 E251.34416
G1 X21.898 Y185.065 E251.36188
G1 X21.585 Y184.727 E251.3772
G1 X21.292 Y184.236 E251.39622
G1 X21.19 Y183.625 E251.41682
G1 X21.19 Y36.23 E256.3192
G1 X21.305 Y35.755 E256.33546
G1 X21.55 Y35.283 E256.35314
G1 X21.888 Y34.97 E256.36847
G0 F9000 X22.13 Y35.291
G1 F1800 X22.517 Y35.06 E256.38346
G1 X22.99 Y34.975 E256.39944
G1 X101.588 Y34.975 E259.01362
G1 X101.97 Y35.068 E259.0267
G1 X102.336 Y35.258 E259.04041
G1 X102.574 Y35.515 E259.05206
G1 X102.805 Y35.902 E259.06705
G1 X102.89 Y36.375 E259.08304
G1 X102.89 Y183.721 E263.98378
G1 X102.797 Y184.105 E263.99693
G1 X102.607 Y184.471 E264.01064
G1 X102.35 Y184.709 E264.02229
G1 X101.963 Y184.94 E264.03728
G1 X101.49 Y185.025 E264.05327
G1 X22.892 Y185.025 E266.66745
G1 X22.51 Y184.932 E266.68052
G1 X22.144 Y184.742 E266.69424
G1 X21.906 Y184.485 E266.70589
G1 X21.675 Y184.098 E266.72088
G1 X21.59 Y183.625 E266.73686
G1 X21.59 Y36.279 E271.63761
G1 X21.683 Y35.895 E271.65075
G1 X21.873 Y35.529 E271.66447
G1 X22.13 Y35.291 E271.67612
G0 F9000 X22.335 Y35.635
G1 F1800 X22.197 Y35.774 E271.68263
G1 X22.06 Y36.037 E271.6925
G1 X21.99 Y36.327 E271.70242
G1 X21.99 Y183.625 E276.60157
G1 X22.055 Y183.953 E276.61269
G1 X22.25 Y184.28 E276.62535
G1 X22.389 Y184.418 E276.63187
G1 X22.652 Y184.555 E276.64173
G1 X22.941 Y184.625 E276.65162
G1 X101.49 Y184.625 E279.26417
G1 X101.818 Y184.56 E279.27529
G1 X102.145 Y184.365 E279.28796
G1 X102.283 Y184.226 E279.29447
G1 X102.42 Y183.963 E279.30433
G1 X102.49 Y183.673 E279.31426
G1 X102.49 Y36.375 E284.21341
G1 X102.425 Y36.047 E284.22453
G1 X102.23 Y35.72 E284.23719
G1 X102.091 Y35.582 E284.24371
G1 X101.828 Y35.445 E284.25357
G1 X101.539 Y35.375 E284.26346
G1 X22.99 Y35.375 E286.87601
G1 X22.662 Y35.44 E286.88713
G1 X22.335 Y35.635 E286.8998
G0 F9000 X22.829 Y36.256
G1 F1800 X22.99 Y36.175 E286.90579
G1 X101.49 Y36.175 E289.51671
G1 X101.609 Y36.214 E289.52088
G1 X101.69 Y36.375 E289.52687
G1 X101.69 Y183.625 E294.42443
G1 X101.651 Y183.744 E294.42859
G1 X101.49 Y183.825 E294.43458
G1 X22.99 Y183.825 E297.04551
G1 X22.871 Y183.786 E297.04967
G1 X22.79 Y183.625 E297.05566
G1 X22.79 Y36.375 E301.95322
G1 X22.829 Y36.256 E301.95738
G0 F9000 X22.449 Y36.131
G1 F1800 X22.54 Y35.979 E301.96328
G1 X22.81 Y35.818 E301.97373
G1 X22.99 Y35.775 E301.97989
G1 X101.49 Y35.775 E304.59081
G1 X101.734 Y35.834 E304.59916
G1 X101.886 Y35.925 E304.60505
G1 X102.047 Y36.195 E304.61551
G1 X102.09 Y36.375 E304.62166
G1 X102.09 Y183.625 E309.51922
G1 X102.031 Y183.869 E309.52757
G1 X101.94 Y184.021 E309.53346
G1 X101.67 Y184.182 E309.54391
G1 X101.49 Y184.225 E309.55007
G1 X22.99 Y184.225 E312.16099
G1 X22.746 Y184.166 E312.16934
G1 X22.594 Y184.075 E312.17523
G1 X22.433 Y183.805 E312.18569
G1 X22.39 Y183.625 E312.19184
G1 X22.39 Y36.375 E317.0894
G1 X22.449 Y36.131 E317.09775
G1 F2400 E316.29775
G1 F300 Z0.4
G0 F9000 X27.49 Y106.5 Z0.4
G1 F300 Z0.2
G1 F2400 E317.09775
G1 F1800 X32.49 Y106.5 E317.26405
G1 X32.49 Y113.5 E317.49687
G1 X27.49 Y113.5 E317.66317
G1 X27.49 Y106.5 E317.89599
G0 F9000 X27.89 Y106.9
G1 F1800 X32.09 Y106.9 E318.03568
G1 X32.09 Y113.1 E318.24189
G1 X27.89 Y113.1 E318.38159
G1 X27.89 Y106.9 E318.5878
G0 F9000 X28.29 Y107.3
G1 F1800 X31.69 Y107.3 E318.70088
G1 X31.69 Y112.7 E318.88049
