;FLAVOR:Marlin
;TIME:11402
;Filament used: 19.165m
;Layer height: 0.2
;MINX:11.986
;MINY:28.298
;MINZ:0.2
;MAXX:106.086
;MAXY:191.148
;MAXZ:22
;TARGET_MACHINE.NAME:Creality Ender-3 V3 SE
;Generated with Cura_SteamEngine 5.8.1
M82 ;absolute extrusion mode
M220 S100 ;Reset Feedrate
M221 S100 ;Reset Flowrate

G28 ;Home

M420 S1; Use saved mesh leveling data

G92 E0 ;Reset Extruder
G1 Z2.0 F3000 ;Move Z Axis up
G1 X-3 Y20 Z0.28 F5000.0 ;Move to start position
M190 S60 ; Set bed temperature and wait
M109 S200.0 ; Set hotend temperature and wait
G1 X-3 Y100.0 Z0.28 F1500.0 E15 ;Draw the first line
G1 X-2 Y100.0 Z0.28 F5000.0 ;Move to side a little
G1 X-2 Y20 Z0.28 F1500.0 E30 ;Draw the second line
G92 E0 ;Reset Extruder
G1 E-1.0000 F1800 ;Retract a bit
G1 Z2.0 F3000 ;Move Z Axis up
G1 E0.0000 F1800 

G92 E0
G92 E0
G1 F2400 E-0.8
;LAYER_COUNT:109
;LAYER:0
M107
G1 F300 Z0.4
G0 F9000 X17.077 Y28.655 Z0.4
;TYPE:SKIRT
G1 F300 Z0.2
G1 F2400 E0
G1 F1800 X18.809 Y28.373 E0.05837
G1 X99.139 Y28.298 E2.73015
G1 X101.035 Y28.764 E2.79509
G1 X103.063 Y29.817 E2.87109
G1 X104.522 Y31.378 E2.94216
G1 X105.729 Y33.401 E3.02051
G1 X106.011 Y35.119 E3.07842
G1 X106.086 Y184.214 E8.03734
G1 X105.641 Y186.068 E8.10075
G1 X104.571 Y188.13 E8.17802
G1 X102.976 Y189.61 E8.25039
G1 X100.995 Y190.791 E8.3271
G1 X99.263 Y191.073 E8.38546
G1 X18.933 Y191.148 E11.05725
G1 X17.037 Y190.682 E11.12219
G1 X15.009 Y189.629 E11.19819
G1 X13.55 Y188.068 E11.26926
G1 X12.343 Y186.045 E11.34761
G1 X12.061 Y184.327 E11.40551
G1 X11.986 Y35.232 E16.36443
G1 X12.431 Y33.378 E16.42785
G1 X13.501 Y31.316 E16.50512
G1 X15.096 Y29.836 E16.57749
G1 X17.077 Y28.655 E16.65419
G0 F9000 X17.217 Y29.038
G1 F1800 X18.873 Y28.768 E16.71
G1 X99.093 Y28.698 E19.37813
G1 X100.892 Y29.14 E19.43974
G1 X102.818 Y30.14 E19.51192
G1 X104.198 Y31.617 E19.57915
G1 X105.346 Y33.541 E19.65367
G1 X105.616 Y35.184 E19.70905
G1 X105.686 Y184.167 E24.66425
G1 X105.263 Y185.928 E24.72448
G1 X104.248 Y187.884 E24.79778
G1 X102.737 Y189.286 E24.86633
G1 X100.855 Y190.408 E24.93921
G1 X99.199 Y190.678 E24.99502
G1 X18.979 Y190.748 E27.66315
G1 X17.18 Y190.306 E27.72476
G1 X15.254 Y189.306 E27.79694
G1 X13.874 Y187.829 E27.86417
G1 X12.726 Y185.905 E27.93869
G1 X12.456 Y184.262 E27.99407
G1 X12.386 Y35.279 E32.94926
G1 X12.809 Y33.518 E33.0095
G1 X13.824 Y31.562 E33.08279
G1 X15.335 Y30.16 E33.15135
G1 X17.217 Y29.038 E33.22423
G0 F9000 X17.357 Y29.421
G1 F1800 X18.937 Y29.163 E33.27747
G1 X99.046 Y29.098 E35.94191
G1 X100.75 Y29.517 E36.00027
G1 X102.573 Y30.463 E36.06859
G1 X103.877 Y31.859 E36.13212
G1 X104.963 Y33.679 E36.20261
G1 X105.221 Y35.249 E36.25553
G1 X105.286 Y184.12 E41.207
G1 X104.885 Y185.788 E41.26406
G1 X103.925 Y187.638 E41.33338
G1 X102.498 Y188.962 E41.39813
G1 X100.715 Y190.025 E41.46717
G1 X99.135 Y190.283 E41.52042
G1 X19.026 Y190.348 E44.18485
G1 X17.322 Y189.929 E44.24322
G1 X15.499 Y188.983 E44.31153
G1 X14.195 Y187.587 E44.37506
G1 X13.109 Y185.767 E44.44556
G1 X12.851 Y184.197 E44.49847
G1 X12.786 Y35.326 E49.44994
G1 X13.187 Y33.658 E49.507
G1 X14.147 Y31.808 E49.57633
G1 X15.574 Y30.484 E49.64107
G1 X17.357 Y29.421 E49.71011
G0 F9000 X17.497 Y29.804
G1 F1800 X19.002 Y29.558 E49.76083
G1 X99 Y29.498 E52.42158
G1 X100.607 Y29.893 E52.47662
G1 X102.328 Y30.786 E52.54111
G1 X103.556 Y32.101 E52.60095
G1 X104.58 Y33.817 E52.66741
G1 X104.826 Y35.314 E52.71787
G1 X104.886 Y184.072 E57.66558
G1 X104.507 Y185.648 E57.71949
G1 X103.602 Y187.392 E57.78485
G1 X102.259 Y188.638 E57.84578
G1 X100.575 Y189.642 E57.91099
G1 X99.07 Y189.888 E57.96171
G1 X19.072 Y189.948 E60.62245
G1 X17.465 Y189.553 E60.67749
G1 X15.744 Y188.66 E60.74198
G1 X14.516 Y187.345 E60.80182
G1 X13.492 Y185.629 E60.86829
G1 X13.246 Y184.132 E60.91874
G1 X13.186 Y35.374 E65.86646
G1 X13.565 Y33.798 E65.92037
G1 X14.47 Y32.054 E65.98572
G1 X15.813 Y30.808 E66.04665
G1 X17.497 Y29.804 E66.11186
G0 F9000 X17.637 Y30.187
G1 F1800 X19.067 Y29.953 E66.16005
G1 X98.954 Y29.898 E68.81711
G1 X100.464 Y30.269 E68.86882
G1 X102.083 Y31.109 E68.92949
G1 X103.235 Y32.343 E68.98564
G1 X104.197 Y33.955 E69.04807
G1 X104.431 Y35.379 E69.09607
G1 X104.486 Y184.024 E74.04002
G1 X104.129 Y185.508 E74.09079
G1 X103.279 Y187.146 E74.15217
G1 X102.02 Y188.314 E74.20929
G1 X100.435 Y189.259 E74.27067
G1 X99.005 Y189.493 E74.31886
G1 X19.118 Y189.548 E76.97591
G1 X17.608 Y189.177 E77.02763
G1 X15.989 Y188.337 E77.08829
G1 X14.837 Y187.103 E77.14444
G1 X13.875 Y185.491 E77.20688
G1 X13.641 Y184.067 E77.25488
G1 X13.586 Y35.422 E82.19883
G1 X13.943 Y33.938 E82.2496
G1 X14.793 Y32.3 E82.31097
G1 X16.052 Y31.132 E82.36809
G1 X17.637 Y30.187 E82.42947
G0 F9000 X17.777 Y30.57
G1 F1800 X19.132 Y30.348 E82.47514
G1 X98.907 Y30.298 E85.12847
G1 X100.322 Y30.646 E85.17693
G1 X101.838 Y31.432 E85.23373
G1 X102.914 Y32.585 E85.28618
G1 X103.814 Y34.093 E85.34459
G1 X104.036 Y35.444 E85.39013
G1 X104.086 Y183.976 E90.33032
G1 X103.751 Y185.368 E90.37794
G1 X102.956 Y186.9 E90.43535
G1 X101.781 Y187.99 E90.48866
G1 X100.295 Y188.876 E90.5462
G1 X98.94 Y189.098 E90.59187
G1 X19.165 Y189.148 E93.2452
G1 X17.75 Y188.8 E93.29366
G1 X16.234 Y188.014 E93.35046
G1 X15.158 Y186.861 E93.40291
G1 X14.258 Y185.353 E93.46132
G1 X14.036 Y184.002 E93.50686
G1 X13.986 Y35.47 E98.44705
G1 X14.321 Y34.078 E98.49467
G1 X15.116 Y32.546 E98.55208
G1 X16.291 Y31.456 E98.60539
G1 X17.777 Y30.57 E98.66293
G0 F9000 X17.917 Y30.953
G1 F1800 X19.197 Y30.743 E98.70607
G1 X98.861 Y30.698 E101.35571
G1 X100.179 Y31.022 E101.40085
G1 X101.593 Y31.755 E101.45382
G1 X102.593 Y32.827 E101.50258
G1 X103.431 Y34.231 E101.55697
G1 X103.641 Y35.509 E101.60004
G1 X103.686 Y183.928 E106.53648
G1 X103.373 Y185.228 E106.58095
G1 X102.633 Y186.654 E106.63439
G1 X101.542 Y187.666 E106.68388
G1 X100.155 Y188.493 E106.73759
G1 X98.875 Y188.703 E106.78073
G1 X19.211 Y188.748 E109.43037
G1 X17.893 Y188.424 E109.47551
G1 X16.479 Y187.691 E109.52848
G1 X15.479 Y186.619 E109.57724
G1 X14.641 Y185.215 E109.63163
G1 X14.431 Y183.937 E109.6747
G1 X14.386 Y35.518 E114.61114
G1 X14.699 Y34.218 E114.65561
G1 X15.439 Y32.792 E114.70905
G1 X16.53 Y31.78 E114.75854
G1 X17.917 Y30.953 E114.81225
G0 F9000 X18.057 Y31.336
G1 F1800 X19.262 Y31.138 E114.85287
G1 X98.815 Y31.098 E117.49881
G1 X100.036 Y31.398 E117.54063
G1 X101.346 Y32.077 E117.58971
G1 X102.274 Y33.072 E117.63496
G1 X103.048 Y34.369 E117.68519
G1 X103.246 Y35.574 E117.72581
G1 X103.286 Y183.88 E122.65849
G1 X102.995 Y185.088 E122.69982
G1 X102.31 Y186.408 E122.74928
G1 X101.303 Y187.342 E122.79496
G1 X100.015 Y188.11 E122.84484
G1 X98.81 Y188.308 E122.88545
G1 X19.257 Y188.348 E125.5314
G1 X18.036 Y188.048 E125.57322
G1 X16.726 Y187.369 E125.62229
G1 X15.798 Y186.374 E125.66754
G1 X15.024 Y185.077 E125.71778
G1 X14.826 Y183.872 E125.7584
G1 X14.786 Y35.566 E130.69107
G1 X15.077 Y34.358 E130.7324
G1 X15.762 Y33.038 E130.78186
G1 X16.769 Y32.104 E130.82755
G1 X18.057 Y31.336 E130.87742
G0 F9000 X18.197 Y31.719
G1 F1800 X19.327 Y31.533 E130.91551
G1 X98.769 Y31.498 E133.55776
G1 X99.893 Y31.774 E133.59626
G1 X101.099 Y32.399 E133.64144
G1 X101.952 Y33.314 E133.68304
G1 X102.665 Y34.509 E133.72933
G1 X102.851 Y35.639 E133.76742
G1 X102.886 Y183.832 E138.69634
G1 X102.617 Y184.948 E138.73452
G1 X101.987 Y186.162 E138.78001
G1 X101.064 Y187.018 E138.82188
G1 X99.875 Y187.727 E138.86792
G1 X98.745 Y187.913 E138.90601
G1 X19.303 Y187.948 E141.54826
G1 X18.179 Y187.672 E141.58676
G1 X16.973 Y187.047 E141.63194
G1 X16.12 Y186.132 E141.67354
G1 X15.407 Y184.937 E141.71982
G1 X15.221 Y183.807 E141.75791
G1 X15.186 Y35.614 E146.68683
G1 X15.455 Y34.498 E146.72501
G1 X16.085 Y33.284 E146.77051
G1 X17.008 Y32.428 E146.81237
G1 X18.197 Y31.719 E146.85842
G0 F9000 X18.337 Y32.102
G1 F1800 X19.392 Y31.928 E146.89398
G1 X98.722 Y31.898 E149.53251
G1 X99.751 Y32.151 E149.56775
G1 X100.852 Y32.721 E149.60899
G1 X101.63 Y33.556 E149.64695
G1 X102.282 Y34.649 E149.68928
G1 X102.456 Y35.704 E149.72484
G1 X102.486 Y183.784 E154.65
G1 X102.239 Y184.808 E154.68504
G1 X101.664 Y185.916 E154.72656
G1 X100.825 Y186.694 E154.76461
G1 X99.735 Y187.344 E154.80682
G1 X98.68 Y187.518 E154.84239
G1 X19.35 Y187.548 E157.48091
G1 X18.321 Y187.295 E157.51616
G1 X17.22 Y186.725 E157.55739
G1 X16.442 Y185.89 E157.59535
G1 X15.79 Y184.797 E157.63768
G1 X15.616 Y183.742 E157.67325
G1 X15.586 Y35.662 E162.59841
G1 X15.833 Y34.638 E162.63344
G1 X16.408 Y33.53 E162.67496
G1 X17.247 Y32.752 E162.71302
G1 X18.337 Y32.102 E162.75523
G0 F9000 X18.477 Y32.485
G1 F1800 X19.457 Y32.323 E162.78826
G1 X98.676 Y32.298 E165.4231
G1 X99.608 Y32.527 E165.45502
G1 X100.605 Y33.043 E165.49236
G1 X101.308 Y33.798 E165.52667
G1 X101.899 Y34.789 E165.56505
G1 X102.061 Y35.769 E165.59808
G1 X102.086 Y183.736 E170.51949
G1 X101.861 Y184.668 E170.55138
G1 X101.341 Y185.67 E170.58892
G1 X100.586 Y186.37 E170.62317
G1 X99.595 Y186.961 E170.66154
G1 X98.615 Y187.123 E170.69458
G1 X19.396 Y187.148 E173.32942
G1 X18.464 Y186.919 E173.36134
G1 X17.467 Y186.403 E173.39867
G1 X16.764 Y185.648 E173.43299
G1 X16.173 Y184.657 E173.47136
G1 X16.011 Y183.677 E173.5044
G1 X15.986 Y35.71 E178.4258
G1 X16.211 Y34.778 E178.45769
G1 X16.731 Y33.776 E178.49524
G1 X17.486 Y33.076 E178.52948
G1 X18.477 Y32.485 E178.56786
G0 F9000 X18.617 Y32.868
G1 F1800 X19.522 Y32.718 E178.59837
G1 X98.63 Y32.698 E181.22951
G1 X99.465 Y32.903 E181.25811
G1 X100.36 Y33.366 E181.29163
G1 X100.984 Y34.037 E181.3221
G1 X101.516 Y34.929 E181.35665
G1 X101.666 Y35.834 E181.38716
G1 X101.686 Y183.688 E186.3048
G1 X101.483 Y184.528 E186.33354
G1 X101.018 Y185.424 E186.36712
G1 X100.347 Y186.046 E186.39755
G1 X99.455 Y186.578 E186.43209
G1 X98.55 Y186.728 E186.46261
G1 X19.442 Y186.748 E189.09375
G1 X18.607 Y186.543 E189.12235
G1 X17.712 Y186.08 E189.15586
G1 X17.088 Y185.409 E189.18634
G1 X16.556 Y184.517 E189.22088
G1 X16.406 Y183.612 E189.25139
G1 X16.386 Y35.758 E194.16904
G1 X16.589 Y34.918 E194.19778
G1 X17.054 Y34.022 E194.23135
G1 X17.725 Y33.4 E194.26179
G1 X18.617 Y32.868 E194.29633
G0 F9000 X18.757 Y33.251
G1 F1800 X19.588 Y33.113 E194.32435
G1 X98.584 Y33.098 E196.95176
G1 X99.322 Y33.279 E196.97704
G1 X100.115 Y33.689 E197.00673
G1 X100.66 Y34.276 E197.03337
G1 X101.133 Y35.069 E197.06408
G1 X101.271 Y35.9 E197.0921
G1 X101.286 Y183.64 E202.00595
G1 X101.105 Y184.388 E202.03155
G1 X100.695 Y185.178 E202.06115
G1 X100.108 Y185.722 E202.08777
G1 X99.315 Y186.195 E202.11848
G1 X98.484 Y186.333 E202.1465
G1 X19.488 Y186.348 E204.77392
G1 X18.75 Y186.167 E204.79919
G1 X17.957 Y185.757 E204.82888
G1 X17.412 Y185.17 E204.85552
G1 X16.939 Y184.377 E204.88623
G1 X16.801 Y183.546 E204.91425
G1 X16.786 Y35.806 E209.8281
G1 X16.967 Y35.058 E209.8537
G1 X17.377 Y34.268 E209.8833
G1 X17.964 Y33.724 E209.90992
G1 X18.757 Y33.251 E209.94063
G0 F9000 X18.897 Y33.634
G1 F1800 X19.654 Y33.508 E209.96616
G1 X98.534 Y33.498 E212.58972
G1 X99.183 Y33.657 E212.61194
G1 X99.87 Y34.012 E212.63766
G1 X100.336 Y34.515 E212.66047
G1 X100.75 Y35.209 E212.68735
G1 X100.876 Y35.966 E212.71287
G1 X100.886 Y183.591 E217.6229
G1 X100.727 Y184.248 E217.64538
G1 X100.372 Y184.932 E217.67101
G1 X99.869 Y185.398 E217.69382
G1 X99.175 Y185.812 E217.7207
G1 X98.418 Y185.938 E217.74622
G1 X19.538 Y185.948 E220.36978
G1 X18.889 Y185.789 E220.392
G1 X18.202 Y185.434 E220.41772
G1 X17.736 Y184.931 E220.44053
G1 X17.322 Y184.237 E220.46741
G1 X17.196 Y183.48 E220.49293
G1 X17.186 Y35.855 E225.40296
G1 X17.345 Y35.198 E225.42544
G1 X17.7 Y34.514 E225.45107
G1 X18.203 Y34.048 E225.47388
G1 X18.897 Y33.634 E225.50076
G0 F9000 X19.037 Y34.017
G1 F1800 X19.72 Y33.903 E225.52379
G1 X98.484 Y33.898 E228.14349
G1 X99.044 Y34.035 E228.16266
G1 X99.624 Y34.335 E228.18438
G1 X100.012 Y34.754 E228.20338
G1 X100.367 Y35.349 E228.22642
G1 X100.481 Y36.032 E228.24945
G1 X100.486 Y183.542 E233.15565
G1 X100.349 Y184.108 E233.17502
G1 X100.049 Y184.686 E233.19668
G1 X99.63 Y185.074 E233.21568
G1 X99.035 Y185.429 E233.23872
G1 X98.352 Y185.543 E233.26175
G1 X19.588 Y185.548 E235.88145
G1 X19.028 Y185.411 E235.90063
G1 X18.448 Y185.111 E235.92235
G1 X18.06 Y184.692 E235.94134
G1 X17.705 Y184.097 E235.96438
G1 X17.591 Y183.414 E235.98741
G1 X17.586 Y35.904 E240.89362
G1 X17.723 Y35.338 E240.91299
G1 X18.023 Y34.76 E240.93465
G1 X18.442 Y34.372 E240.95364
G1 X19.037 Y34.017 E240.97668
G0 F9000 X19.175 Y34.4
G1 F1800 X19.786 Y34.298 E240.99729
G1 X98.434 Y34.298 E243.61313
G1 X98.905 Y34.413 E243.62926
G1 X99.378 Y34.658 E243.64697
G1 X99.691 Y34.996 E243.66229
G1 X99.984 Y35.487 E243.68131
G1 X100.086 Y36.098 E243.70192
G1 X100.086 Y183.493 E248.60429
G1 X99.971 Y183.968 E248.62055
G1 X99.726 Y184.44 E248.63824
G1 X99.388 Y184.753 E248.65356
G1 X98.897 Y185.046 E248.67257
G1 X98.286 Y185.148 E248.69318
G1 X19.638 Y185.148 E251.30902
G1 X19.167 Y185.033 E251.32515
G1 X18.694 Y184.788 E251.34286
G1 X18.381 Y184.45 E251.35819
G1 X18.088 Y183.959 E251.3772
G1 X17.986 Y183.348 E251.39781
G1 X17.986 Y35.953 E256.30018
G1 X18.101 Y35.478 E256.31644
G1 X18.346 Y35.006 E256.33413
G1 X18.684 Y34.693 E256.34945
G1 X19.175 Y34.4 E256.36847
G0 F9000 X19.313 Y34.783
G1 F1800 X19.786 Y34.698 E256.38445
G1 X98.384 Y34.698 E258.99863
G1 X98.766 Y34.791 E259.01171
G1 X99.132 Y34.981 E259.02542
G1 X99.37 Y35.238 E259.03707
G1 X99.601 Y35.625 E259.05206
G1 X99.686 Y36.098 E259.06805
G1 X99.686 Y183.444 E263.96879
G1 X99.593 Y183.828 E263.98194
G1 X99.403 Y184.194 E263.99565
G1 X99.146 Y184.432 E264.0073
G1 X98.759 Y184.663 E264.02229
G1 X98.286 Y184.748 E264.03828
G1 X19.688 Y184.748 E266.65246
G1 X19.306 Y184.655 E266.66553
G1 X18.94 Y184.465 E266.67925
G1 X18.702 Y184.208 E266.6909
G1 X18.471 Y183.821 E266.70589
G1 X18.386 Y183.348 E266.72187
G1 X18.386 Y36.002 E271.62262
G1 X18.479 Y35.618 E271.63576
G1 X18.669 Y35.252 E271.64948
G1 X18.926 Y35.014 E271.66113
G1 X19.313 Y34.783 E271.67612
G0 F9000 X19.458 Y35.163
G1 F1800 X19.786 Y35.098 E271.68724
G1 X98.335 Y35.098 E274.29979
G1 X98.624 Y35.168 E274.30968
G1 X98.887 Y35.305 E274.31954
G1 X99.026 Y35.443 E274.32606
G1 X99.221 Y35.77 E274.33872
G1 X99.286 Y36.098 E274.34984
G1 X99.286 Y183.396 E279.24899
G1 X99.216 Y183.686 E279.25892
G1 X99.079 Y183.949 E279.26878
G1 X98.941 Y184.088 E279.27529
G1 X98.614 Y184.283 E279.28796
G1 X98.286 Y184.348 E279.29908
G1 X19.737 Y184.348 E281.91163
G1 X19.448 Y184.278 E281.92152
G1 X19.185 Y184.141 E281.93138
G1 X19.046 Y184.003 E281.9379
G1 X18.851 Y183.676 E281.95056
G1 X18.786 Y183.348 E281.96168
G1 X18.786 Y36.05 E286.86083
G1 X18.856 Y35.76 E286.87076
G1 X18.993 Y35.497 E286.88062
G1 X19.131 Y35.358 E286.88713
G1 X19.458 Y35.163 E286.8998
G0 F9000 X19.786 Y35.898
G1 F1800 X98.286 Y35.898 E289.51072
G1 X98.405 Y35.937 E289.51488
G1 X98.486 Y36.098 E289.52088
G1 X98.486 Y183.348 E294.41843
G1 X98.447 Y183.467 E294.4226
G1 X98.286 Y183.548 E294.42859
G1 X19.786 Y183.548 E297.03951
G1 X19.667 Y183.509 E297.04368
G1 X19.586 Y183.348 E297.04967
G1 X19.586 Y36.098 E301.94723
G1 X19.625 Y35.979 E301.95139
G1 X19.786 Y35.898 E301.95738
G0 F9000 X19.606 Y35.541
G1 F1800 X19.786 Y35.498 E301.96354
G1 X98.286 Y35.498 E304.57446
G1 X98.53 Y35.557 E304.58281
G1 X98.682 Y35.648 E304.5887
G1 X98.843 Y35.918 E304.59916
G1 X98.886 Y36.098 E304.60531
G1 X98.886 Y183.348 E309.50287
G1 X98.827 Y183.592 E309.51122
G1 X98.736 Y183.744 E309.51711
G1 X98.466 Y183.905 E309.52757
G1 X98.286 Y183.948 E309.53372
G1 X19.786 Y183.948 E312.14464
G1 X19.542 Y183.889 E312.15299
G1 X19.39 Y183.798 E312.15888
G1 X19.229 Y183.528 E312.16934
G1 X19.186 Y183.348 E312.17549
G1 X19.186 Y36.098 E317.07305
G1 X19.245 Y35.854 E317.0814
G1 X19.336 Y35.702 E317.08729
G1 X19.606 Y35.541 E317.09775
G1 F2400 E316.29775
G1 F300 Z0.4
;MESH:Bike_Tracker_Case_2.stl
G0 F9000 X34.936 Y58.014 Z0.4
;TYPE:WALL-INNER
G1 F300 Z0.2
G1 F2400 E317.09775
G1 F1800 X34.042 Y58.128 E317.12772
G1 X33.162 Y58.02 E317.15721
G1 X32.331 Y57.672 E317.18717
G1 X31.626 Y57.142 E317.21651
G1 X31.082 Y56.432 E317.24626
G1 X30.808 Y55.777 E317.26987
G1 X30.72 Y55.478 E317.28024
G1 X30.624 Y54.72 E317.30565
G1 X30.726 Y53.9 E317.33314
G1 X30.809 Y53.66 E317.34158
